X:1
T:Title
%%score { 1 | ( 2 3 ) }
L:1/8
M:3/4
K:G
V:1 treble nm="Grand Piano"
V:2 bass 
V:3 bass 
V:1
 z2 z2[Q:1/4=116] D2 | [B,D]2 [DB]2 [CA]2 | [CA]2 [B,G]2 D2 | E2 [EG]2 [CE]2 | [B,D]4 G2 | %5
 G2 F2 A2 | A2 G2 B2 | B2 A2 G2 | A4 D2 | [B,D]2 [DB]2 [CA]2 | [CA]2 [B,G]2 G2 | G2 A2 B2 | %12
 c4 [Ge]2 | e2 d2 B2 | [Ed]2 [Ec]2 [EA]2 | G2 B2 A2 |[M:2/4] [B,DG]4 |[M:1/4] D2 | %18
[M:3/4] B2 B2 A2 | G4 D2 | c2 c2 B2 |[M:2/4] [FA]4 |[M:1/4] Bc |[M:3/4] d2 B2 G2 | %24
 [CEc]2 [DEB]2 [CEA]2[Q:1/4=114][Q:1/4=112][Q:1/4=111][Q:1/4=109][Q:1/4=107][Q:1/4=105][Q:1/4=103][Q:1/4=102][Q:1/4=100][Q:1/4=98] | %25
 G2 B2 A2[Q:1/4=96][Q:1/4=94][Q:1/4=92][Q:1/4=91][Q:1/4=89] |[M:2/4] G4 |] %27
V:2
 z2 z2 D,2 | [G,,G,]2 [G,,G,]2 [G,,D,]2 | [G,,D,]2 [G,,D,]2 [G,,G,]2 | [C,G,C]2 [C,G,]2 [C,G,]2 | %4
 [G,,G,]4 [G,B,D]2 | [D,B,D]2 [D,A,D]2 [D,CD]2 | [G,CD]2 [G,B,D]2 [G,D]2 | %7
 [G,D]2 [F,A,D]2 [E,A,^C]2 | [D,F,C]4 [D,F,C]2 | [G,,G,]2 [G,,G,]2 [G,,D,]2 | %10
 [G,,D,]2 [G,,D,]2 [G,B,]2 | [G,B,D]2 [F,A,D]2 [=F,G,D]2 | [E,G,C]4 [C,C]2 | %13
 [G,CG]2 [G,B,G]2 [G,=F]2 | [C,G,]2 [C,G,]2 [C,C]2 | [D,B,D]2 [D,D]2 [D,CD]2 |[M:2/4] [G,,G,]4 | %17
[M:1/4] [G,B,]2 |[M:3/4] [G,D]2 [G,D]2 [G,CD]2 | [G,B,D]4 [G,B,]2 | %20
 [F,A,D]2 [F,A,D]2[K:treble] [G,DG]2 |[M:2/4] [D,D]4 |[M:1/4] D z | %23
[M:3/4] [G,B,G]2 [G,D]2 [G,B,=F]2 | C,2 C,2 C,2 | [D,B,D]2 [D,D]2 [D,CD]2 |[M:2/4] [G,B,D]4 |] %27
V:3
 x6 | x6 | x6 | x6 | x6 | x6 | x6 | x6 | x6 | x6 | x6 | x6 | x6 | x6 | x6 | x6 |[M:2/4] x4 | %17
[M:1/4] x2 |[M:3/4] x6 | x6 | x4[K:treble] x2 |[M:2/4] x4 |[M:1/4] [G,G]-[G,CG] |[M:3/4] x6 | x6 | %25
 x6 |[M:2/4] x4 |] %27

